style/elvis/src/icons/svg/src/alert-circle.svg

<svg width="24" height="25" viewBox="0 0 24 25" fill="none" xmlns="http://www.w3.org/2000/svg">
<path d="M12 18.1601C12.6213 18.1601 13.125 17.6558 13.125 17.0338C13.125 16.4117 12.6213 15.9075 12 15.9075C11.3787 15.9075 10.875 16.4117 10.875 17.0338C10.875 17.6558 11.3787 18.1601 12 18.1601Z" fill="black"/>
<path d="M12 14.4057C11.586 14.4057 11.25 14.0694 11.25 13.6549V5.39542C11.25 4.98095 11.586 4.64456 12 4.64456C12.414 4.64456 12.75 4.98095 12.75 5.39542V13.6549C12.75 14.0694 12.414 14.4057 12 14.4057Z" fill="black"/>
<path d="M12 24.1669C5.383 24.1669 0 18.7778 0 12.1532C0 5.52858 5.383 0.139404 12 0.139404C18.617 0.139404 24 5.52858 24 12.1532C24 18.7778 18.617 24.1669 12 24.1669ZM12 1.64112C6.21 1.64112 1.5 6.35653 1.5 12.1532C1.5 17.9498 6.21 22.6652 12 22.6652C17.79 22.6652 22.5 17.9498 22.5 12.1532C22.5 6.35653 17.79 1.64112 12 1.64112Z" fill="black"/>
</svg>

<svg width="24" height="25" fill="none" xmlns="http://www.w3.org/2000/svg"><path d="M12 18.16a1.126 1.126 0 10-.001-2.251A1.126 1.126 0 0012 18.16zm0-3.754a.75.75 0 01-.75-.751v-8.26a.75.75 0 111.5 0v8.26a.75.75 0 01-.75.75z" fill="#1B314B"/><path d="M12 24.167c-6.617 0-12-5.39-12-12.014S5.383.14 12 .14s12 5.39 12 12.014c0 6.625-5.383 12.014-12 12.014zM12 1.64c-5.79 0-10.5 4.716-10.5 10.512 0 5.797 4.71 10.512 10.5 10.512s10.5-4.715 10.5-10.512C22.5 6.356 17.79 1.64 12 1.64z" fill="#1B314B"/></svg>
